svg/output_flow.svg

<svg width="24" height="24" viewBox="0 0 24 24"  xmlns="http://www.w3.org/2000/svg">
<path d="M19 9.99611V12L22 9L19 6V7.99376C18.309 7.94885 17.9594 7.6644 17.4402 7.23176L17.4283 7.22188C16.7967 6.6955 15.9622 6 14.4 6C12.8378 6 12.0033 6.69551 11.3717 7.22188L11.3598 7.23178C10.7928 7.70427 10.428 8 9.6 8C8.772 8 8.40717 7.70427 7.84018 7.23178L7.82831 7.22188C7.59036 7.02357 7.32361 6.80126 7 6.60118V9.12312C7.58472 9.56529 8.36495 10 9.6 10C11.1622 10 11.9967 9.30449 12.6283 8.77812L12.6402 8.76822C13.2072 8.29573 13.572 8 14.4 8C15.228 8 15.5928 8.29573 16.1598 8.76821L16.1717 8.77811C16.7758 9.28156 17.5655 9.93973 19 9.99611Z" />
<path d="M7 17.1231C7.58472 17.5653 8.36495 18 9.6 18C11.1622 18 11.9967 17.3045 12.6283 16.7781L12.6402 16.7682C13.2072 16.2957 13.572 16 14.4 16C15.228 16 15.5928 16.2957 16.1598 16.7682L16.1717 16.7781C16.7758 17.2816 17.5655 17.9397 19 17.9961V20L22 17L19 14V15.9938C18.309 15.9488 17.9594 15.6644 17.4402 15.2318L17.4283 15.2219C16.7967 14.6955 15.9622 14 14.4 14C12.8378 14 12.0033 14.6955 11.3717 15.2219L11.3598 15.2318C10.7928 15.7043 10.428 16 9.6 16C8.772 16 8.40717 15.7043 7.84018 15.2318L7.82831 15.2219C7.59036 15.0236 7.32361 14.8013 7 14.6012V17.1231Z" />
<path d="M5 4H15V8.03662C15.8985 8.15022 16.5162 8.51098 17 8.87686V4C17 2.89543 16.1046 2 15 2H5C3.89543 2 3 2.89543 3 4V20C3 21.1046 3.89543 22 5 22H15C16.1046 22 17 21.1046 17 20V19.3988C16.6764 19.1987 16.4096 18.9764 16.1717 18.7781L16.1598 18.7682C15.7512 18.4277 15.4476 18.179 15 18.0666V20H5L5 4Z" />
<path d="M15 16.0366C15.8985 16.1502 16.5162 16.511 17 16.8769V11.3988C16.6764 11.1987 16.4096 10.9764 16.1717 10.7781L16.1598 10.7682C15.7512 10.4277 15.4476 10.179 15 10.0666V16.0366Z" />
</svg>

<svg width="24" height="24" viewBox="0 0 24 24" xmlns="http://www.w3.org/2000/svg"><path d="M19 9.996V12l3-3-3-3v1.994c-.691-.045-1.04-.33-1.56-.762l-.012-.01C16.797 6.695 15.962 6 14.4 6s-2.397.696-3.028 1.222l-.012.01c-.567.472-.932.768-1.76.768s-1.193-.296-1.76-.768l-.012-.01A7.14 7.14 0 0 0 7 6.602v2.521c.585.442 1.365.877 2.6.877 1.562 0 2.397-.696 3.028-1.222l.012-.01c.567-.472.932-.768 1.76-.768s1.193.296 1.76.768l.012.01c.604.504 1.393 1.162 2.828 1.218zM7 17.123c.585.442 1.365.877 2.6.877 1.562 0 2.397-.695 3.028-1.222l.012-.01c.567-.472.932-.768 1.76-.768s1.193.296 1.76.768l.012.01c.604.504 1.393 1.162 2.828 1.218V20l3-3-3-3v1.994c-.691-.045-1.04-.33-1.56-.762l-.012-.01C16.797 14.695 15.962 14 14.4 14s-2.397.695-3.028 1.222l-.012.01c-.567.472-.932.768-1.76.768s-1.193-.296-1.76-.768l-.012-.01a7.144 7.144 0 0 0-.828-.62v2.521z"/><path d="M5 4h10v4.037c.899.113 1.516.474 2 .84V4a2 2 0 0 0-2-2H5a2 2 0 0 0-2 2v16a2 2 0 0 0 2 2h10a2 2 0 0 0 2-2v-.601a7.14 7.14 0 0 1-.828-.62l-.012-.01c-.409-.341-.712-.59-1.16-.702V20H5V4z"/><path d="M15 16.037c.899.113 1.516.474 2 .84v-5.478a7.14 7.14 0 0 1-.828-.62l-.012-.01c-.409-.341-.712-.59-1.16-.702v5.97z"/></svg>
